X:26
T: Does Madla von der Gmaa hot schoene weisse Baa
N: V0006
O: Europa, Mitteleuropa, Deutschland, Ober - Franken, Breitenlesau
N: Bemerkung: "wird offenbar mit Schlussbildung wiederholt"
R: Liebes - Lied
M: 2/4
L: 1/8
K: G
d | ed^cd | B2z
d | ed^cd | c2z
d | ed^cd | f2f2 | e2e2 | d3

@@@ Tune index: 9755
